icons/device-desktop-24.svg

<svg width="24" height="24" viewBox="0 0 24 24" xmlns="http://www.w3.org/2000/svg">
  <path fill-rule="evenodd" clip-rule="evenodd" d="M8.95352 17H2.75C1.7835 17 1 16.2165 1 15.25V3.75C1 2.7835 1.7835 2 2.75 2H21.25C22.2165 2 23 2.7835 23 3.75V15.25C23 16.2165 22.2165 17 21.25 17H15.0463C15.217 18.3751 15.8509 19.6522 16.815 20.7568C17.0083 20.9784 17.0544 21.2926 16.9327 21.5604C16.811 21.8281 16.544 22 16.2499 22H7.74989C7.45578 22 7.18882 21.8281 7.06711 21.5604C6.94541 21.2926 6.99144 20.9784 7.18482 20.7568C8.14891 19.6522 8.78282 18.3751 8.95352 17ZM21.5 3.75V15.25C21.5 15.3881 21.3881 15.5 21.25 15.5H2.75C2.61193 15.5 2.5 15.3881 2.5 15.25V3.75C2.5 3.61193 2.61193 3.5 2.75 3.5H21.25C21.3881 3.5 21.5 3.61193 21.5 3.75ZM13.5369 17C13.6624 18.2662 14.1009 19.445 14.7601 20.5H9.23971C9.89885 19.445 10.3373 18.2662 10.4629 17H13.5369Z"/>
</svg>

<svg xmlns="http://www.w3.org/2000/svg" width="24" height="24" viewBox="0 0 24 24"><path fill-rule="evenodd" d="M8.954 17H2.75A1.75 1.75 0 011 15.25V3.75C1 2.784 1.784 2 2.75 2h18.5c.966 0 1.75.784 1.75 1.75v11.5A1.75 1.75 0 0121.25 17h-6.204c.171 1.375.805 2.652 1.769 3.757A.75.75 0 0116.25 22h-8.5a.75.75 0 01-.565-1.243c.964-1.105 1.598-2.382 1.769-3.757zM21.5 3.75v11.5a.25.25 0 01-.25.25H2.75a.25.25 0 01-.25-.25V3.75a.25.25 0 01.25-.25h18.5a.25.25 0 01.25.25zM13.537 17c.125 1.266.564 2.445 1.223 3.5H9.24c.659-1.055 1.097-2.234 1.223-3.5h3.074z"/></svg>
